X:10
T:Earish Ayre
Z:Jack Campin, http://www.campin.me.uk/
F:Jack Campin's Nine-Note Tunebook
% last edit 03-02-2013
S:James Thomson's recorder MS, Edinburgh 1702
N:"Earish" means "Irish" which at that time and place meant "Scottish Gaelic"
M:4/4
L:1/8
Q:1/4=120
K:DDor
D2 A2 (GF) (ED)|C2 G2 (FE) (DC)|D2 A2  A2   GA |(BA) (GF) ({EF}E2) D2||
AG AB  c2   BA |GF GA  B2   AG |A2 d2 (cB) (AG)| AG   AB  ({EF}E2) F2 |
FG AB  cd   cA |GF ED  CD   EC |D2 A2  A2   GA |(BA) (GF) ({EF}E2) D2|]


